X:1
T:Flower Of Spain
T:Flower Of Spain
T:(Gold Medal Tango)
T:By PETE WENDLING and MAX KORTLANDER 
T:Copyright 1924 by Pete Wendling &amp; Max Kortlander
T:Copyright 1924 by Pete Wendling &amp; Max Kortlander
T:Copyright 1924 by Pete Wendling &amp; Max Kortlander
T:Copyright 1924 by Pete Wendling &amp; Max Kortlander
C:By PETE WENDLING and MAX KORTLANDER
Z:Copyright 1924 by Pete Wendling & Max Kortlander
%%score { ( 1 3 ) | ( 2 4 ) }
L:1/8
Q:1/4=170
M:2/2
K:Bb
V:1 treble nm="Piano" snm="Pno."
V:3 treble 
V:2 bass 
V:4 bass 
V:1
"^Tempo di Tango"!<(! !>!D2!<)! ||S!sfz! !^!G,2!<(! (3D=E^F (3GAB (3=Bc!<)!^c | %2
!f! !>!!tenuto!d6 !>!^c2 | !>!!tenuto!d6 (!>!^c2 | %4
 .[DGBd]2) ((!>![^CGB^c]2 .[DGBd]2)) ((!>![CGBc]2 | .[DGBd]2)) [DGB]2 .[=CD^FA]2 [B,DG]2 | %6
 [A,C^F] [_E_e]2 [DFcd]- [cd]4- | [cd] z [_E^Fc]2 [DFB]2 [CFA]2 | %8
 [DGB] [CD^FA]2 [B,DG]- [B,DG]A[B,DB]G | [A,^CA]^G[A,CA][=C^FAd]- [CFAd]2 !>!D2 | %10
!sfz! !^!G,2!<(! (3D=E^F (3GAB (3=Bc!<)!^c |!f! !>!!tenuto!d6 !>!^c2 | !>!!tenuto!d6 (!>!^c2 | %13
 .[DGBd]2) ((!>![^CGB^c]2 .[DGBd]2)) ((!>![CGBc]2 | .[DGBd]2)) [DGB]2 .[=CD^FA]2 [B,DG]2 | %15
 [A,C^F] [_E_e]2 [DFcd]- [cd]4- | [cd] z [_E^Fc]2 [DFB]2 [CFA]2 | %17
 [DGB] [CD^FA]2 [B,DG]- [B,DG]2!<(! !>![^Fcd^f]2!<)! | %18
!sfz! !^![GBdg]2 z2!8va(! !arpeggio!!^![gbd'g']!8va)! z z2!fine! || %19
!mf! .[Bd] !>!g2 .d !>!!tenuto!g4 | !>!!tenuto!c2 .c!>![EG]- [EG].c !>![EG]2 | %21
 !>![DGB](dB)!>![D^Fc]- [DFc].B !>![DFA]2 | !>!!tenuto!G2 .G!>![B,D]- [B,D].G !>![B,D]2 | %23
!f! ^FGAD- D=EFD |!<(! GAB!<)!G- GABG | A=B^cA- AB!<(! c2 | %26
 .[^FAd]!<)!!ff!!8va(! (!>![^f'd''].[d'!courtesy!_b'])!8va)!"^loco" (!>![^fd'].[db]) ((!>![^Fd]!>(!.[D!courtesy!_B])) z!>)! | %27
!mf! .[Bd] !>!g2 .d !>!!tenuto!g4 | !>!!tenuto!c2 .c!>![EG]- [EG].c !>![EG]2 | %29
 !>![DGB](dB)!>![D^Fc]- [DFc].B !>![DFA]2 | !>!!tenuto!G2 .G!>![B,D]- [B,D].G !>![B,D]2 | %31
!f! ^FGAD- D=EFD |!<(! GAB!<)!G- GABG | (!>![^Fd]D=E!>![C^F]-) [CF].E !>![CD]2 | %34
!f! z !>![dd']!<(!!>![_e_e']!>![=f=f'] !>![ee']2!<)! !>![dd']2 || %35
!ff!!8va(! .[bd'] !>!g'2 .d' !>!!tenuto!g'4!8va)! | c'2 .c'[eg]- [eg].c' !>![eg]2 | %37
 !>![dgb](!>!d'b!>![d^fc']-) [dfc'].b !>![dfa]2 | !>!g2 .g[Bd]- [Bd].g !>![Bd]2 | %39
 !>![^F^f]([Gg][Aa]!>![Dd]-) [Dd]([=E=e][^F^f][Dd]) | %40
 (!>![Gg][Aa][Bb])!>![Gg]- [Gg]([Aa][Bb][Gg]) | !>![Aa][=B=b][^c^c']!>![Aa]- [Aa].[Bb] !>![cc']2 | %42
 !>![^df^d']!8va(! [^f'd''].[=d'!courtesy!_b']!8va)!"^loco" [^fd'].[=db] .[^Fd]!>![D!courtesy!_B] z | %43
!8va(! .[bd'] !>!g'2 .d' !>!!tenuto!g'4!8va)! | c'2 .c'[eg]- [eg].c' !>![eg]2 | %45
 !>![dgb](!>!d'b!>![d^fc']-) [dfc'].b !>![dfa]2 | !>!g2 .g[Bd]- [Bd].g !>![Bd]2 | %47
 !>![^F^f]([Gg][Aa]!>![Dd]-) [Dd]([=E=e][^F^f][Dd]) | %48
 (!>![Gg][Aa][Bb])!>![Gg]- [Gg]([Aa][Bb][Gg]) | (!>![dd'][Dd][=E=e]!>![^F^f]-) [Ff].[Ee] !>![Dd]2 | %50
!sfz! !arpeggio!!^![GBdg]!<(! z z2!<)!!sfz!!8va(! !^![gbd'g']2!8va)! !>!D2 || %51
 !^!G,2!<(! (3D=E^F (3GAB (3=Bc!<)!^c ||!f! (3!>!dDG B/d/g/b/ .d'2 !>![^CGB^c]2 | %53
 (3!>![DGBd]DG B/d/g/b/ .d'2 ((!>![^cgb^c']2 | %54
 .[dgbd']2)) ((!>![^cgb^c']2 .[dgbd']2)) ((!>![!courtesy!^cgb!courtesy!^c']2 | %55
 .[dgbd']2)) !tenuto![Bdgb]2 !tenuto![Ac^fa]2 !tenuto![GBdg]2 | %56
 .[^Fcd^f] !>![_e!courtesy!_e']2 !>![dfc'd']- [dfc'd']4- | %57
 [dfc'd'] z/ (a<[d^fc']a/) .[dfb]2 .[cfa]2 | [Bb] [Aa]2 [Gg]- [Gg][Aa][Bb][Gg] | %59
 (!>![Aa][^G^g][Aa]!>![d^fa=c'd']-) [dfac'd']4 | (3!>!dDG B/d/g/b/ .d'2 !>![^CGB^c]2 | %61
 (3!>![DGBd]DG B/d/g/b/ .d'2 ((!>![^cgb^c']2 | %62
 .[dgbd']2)) ((!>![^cgb^c']2 .[dgbd']2)) ((!>![!courtesy!^cgb!courtesy!^c']2 | %63
 .[dgbd']2)) !tenuto![Bdgb]2 !tenuto![Ac^fa]2 !tenuto![GBdg]2 | %64
 .[^Fcd^f] !>![_e!courtesy!_e']2 !>![dfc'd']- [dfc'd']4- | %65
 [dfc'd'] z/ (a<[d^fc']a/) .[dfb]2 .[cfa]2 | !>![Bb] !>![Aa]2 !>![Gg]- [Gg]2 [^fc'd'^f']2 | %67
!sfz! !^![gbd'g']2 z2!8va(!{d''=e''^f''} !^![g'b'd''g'']!8va)! z z2 || %68
[K:F][M:2/2]!f!"^TRIO" !>![GBd] !>![GBd]2 !>![GBd] !>![GBd]2 !>![GBd]2 | %69
 !>![GB_e] !>![GBe]2 !>![GBe] !>![GBe]2 !>![GBe]2 | %70
 !>![GB=e] !>![GBe]2 !>![GBe] !>![GBf]2 !>![Ac^f]2 | !>![Bcg]2 z2!sfz! !arpeggio!!^![cegc']2 z2 || %72
!mp! x3"^L.H." [FAc] .[FAc]2 .[FAc]2 | x2 z"^L.H." .[D^Fc] .[DFc]2 .[DFc]2 | %74
 x2 z"^L.H." .[D=F=B] .[DFB]2 .[DFB]2 | x2 z"^L.H." .[D=F=B] .[DFB]2 .[DFB]2 | %76
 x2 z"^L.H." .[G_Be] .[GBe]2 .[GBe]2 | x2 z"^L.H." .[G_Be] .[GBe]2 .[GBe]2 | %78
 x2"_R.H." z"^L.H." [Acf] .[Acf]2 [Acf]2 | z"^R.H." .[B,C].[B,D]!>![B,E]- [B,E].[B,D] !>![B,C]2 | %80
 x3"^L.H." [FAc] .[FAc]2 .[FAc]2 | x2 z"^L.H." .[D^Fc] .[DFc]2 .[DFc]2 | %82
 x2 z"^L.H." .[D=F=B] .[DFB]2 .[DFB]2 | x2 z"^L.H." [D=F=B] .[DFB]2 .[DFB]2 | %84
 x2 z"^L.H." .[G_Be] .[GBe]2 .[GBe]2 | x2 z"^L.H." .[G_Be] .[GBe]2 .[GBe]2 | %86
 z"^R.H." .[B,C].[B,D]!>![B,E]- [B,E].[B,D] !>![B,C]2 |!<(! !>![A,CF]2 z2!<)!!sfz! !^![ce^gc']4 || %88
[M:2/2]!ff! .[cfac'] !>![ff']2 .[dd'] !>!!tenuto![efae']4 | %89
 z !>![Ac^fa]2 .[^G^g] (!>![Acfa][Bb] .[cfac']2) | .[D=F=Bd] !>![Aa]2 .[Dd] !tenuto![FAfg]4 | %91
 z !>![DF=Bd]2 .[Ee] (!>![FBdf][Ee] .[DFBd]2) | .[EB_ce] !>![=cc']2 .[Aa] !>![cec'](a[Beg]^g) | %93
 !>![ca]([ec'][ca][Bg]- !tenuto![Bg]4) | [FAcf] !>![ff']2 .[dd'] !>![ff']2 !>![df=bd']2 | %95
 z .[cbc'].[dbd']!>![ebe']- [ebe'].[dbd'] !>![cbc']2 | %96
 .[cfac'] !>![ff']2 .[dd'] !>!!tenuto![efae']4 | z !>![Ac^fa]2 .[^G^g] (!>![Acfa][Bb] .[cfac']2) | %98
 .[D=F=Bd] !>![Aa]2 .[Dd] !tenuto![FAfg]4 | z !>![DF=Bd]2 .[Ee] (!>![FBdf][Ee] .[DFBd]2) | %100
 .[EB_ce] !>![=cc']2 .[Aa] !>![cec'](a[Beg]^g) | !>![ca]([ec'][ca][Bg]- !tenuto![Bg]4) | %102
!<(! z .[cbc']!<)!.[dbd']!>![ebe']- [ebe'].[dbd'] !>![cbc']2 | %103
!<(! !arpeggio!!>![fac'f']2 z2!<)!!8va(! !arpeggio!!^![f'a'c''f'']!8va)! z!sfz! !>!D2!D.S.! || %104
V:2
 !>![D,,D,]2 || !^![G,,,G,,]2 z2 z4 | %2
 !arpeggio!!>![G,,D,B,]2 z !arpeggio!!>![G,,D,B,]- [G,,D,B,]2 !arpeggio!!>![G,,_E,B,]2 | %3
 !arpeggio!!>![G,,D,B,]2 z !arpeggio!!>![G,,D,B,]- [G,,D,B,]2 ((!arpeggio!!>![G,,_E,B,]2 | %4
 .[G,,D,B,]2)) ((!>![G,,_E,B,]2 .[G,,=D,B,]2)) ((!>![G,,E,B,]2 | %5
 .[G,,D,B,]2)) z2 !tenuto![D,,D,]4 | A,,2 [D,^F,C]2 [D,,D,]>(^F,G,>^G, | %7
 .A,) z z2 !tenuto![D,,D,]4 | [G,,G,]2 z2 !tenuto![D,,D,]4 | %9
 (([=E,,=E,]2 [_E,,_E,]2 [D,,D,]2)) !>![D,,D,]2 | !^![G,,,G,,]2 z2 z4 | %11
 !arpeggio!!>![G,,D,B,]2 z !arpeggio!!>![G,,D,B,]- [G,,D,B,]2 !arpeggio!!>![G,,_E,B,]2 | %12
 !arpeggio!!>![G,,D,B,]2 z !arpeggio!!>![G,,D,B,]- [G,,D,B,]2 ((!arpeggio!!>![G,,_E,B,]2 | %13
 .[G,,D,B,]2)) ((!>![G,,_E,B,]2 .[G,,=D,B,]2)) ((!>![G,,E,B,]2 | %14
 .[G,,D,B,]2)) z2 !tenuto![D,,D,]4 | A,,2 [D,^F,C]2 [D,,D,]>(^F,G,>^G, | %16
 .A,) z z2 !tenuto![D,,D,]4 | [G,,G,] z z2 z2 [D,,D,]2 | %18
 !^![G,,,G,,]2 z2 !arpeggio!!^![G,,E,B,] z"^Fine" z2 || .[G,D] !>!G2 .D !>!F(._E .D._D) | %20
 !>!!tenuto!C8 | !>!B,(DB,C-) (CB, A,_A,) | !>!!tenuto!G,8 | %23
 [A,,A,]2 [D,^F,C]2 [D,,D,]2"^cresc." [D,F,C]2 | [G,,G,]2 [D,G,B,]2 [D,,D,]2 [D,G,B,]2 | %25
 [=E,,=E,]2 [E,G,A,^C]2 A,,2 [E,G,A,C]2 | .[D,,D,] z z2 z4 | .[G,D] !>!G2 .D !>!F(._E .D._D) | %28
 !>!!tenuto!C8 | !>!B,(DB,C-) (CB, A,_A,) | !>!!tenuto!G,8 | %31
 [A,,A,]2 [D,^F,C]2 [D,,D,]2"^cresc." [D,F,C]2 | [G,,G,]2 [D,G,B,]2 [D,,D,]2 [D,G,B,]2 | %33
 (!>![D,,D,]^F,G,!>!A,-) A,.G, !>!^F,2 | z !>!D!>!_E!>!=F !>!E2 !>!D2 || %35
[K:treble] .[Gd] !>!g2 .d (!>!f!courtesy!_e d_d) | !tenuto!c8 | (!>!BdB!>!c-) (cB A_A) | %38
 !tenuto!G8 |[K:bass] [A,,A,]2 [D,^F,C]2 [D,,D,]2 [D,F,C]2 | [G,,G,]2 [G,B,D]2 [D,,D,]2 [G,B,D]2 | %41
 [=E,,=E,]2 [A,^CG]2 A,,2 [A,CG]2 | !arpeggio![D,A,^F] z z2 z4 | %43
[K:treble] .[Gd] !>!g2 .d (!>!f!courtesy!_e d_d) | !>!!tenuto!c8 | (!>!BdB!>!c-) (cB A_A) | %46
 !>!!tenuto!G8 |[K:bass] [A,,A,]2 [D,^F,C]2 [D,,D,]2 [D,F,C]2 | %48
 [G,,G,]2 [G,B,D]2 [D,,D,]2 [G,B,D]2 | [A,,A,]2 [D,^F,C]2 [D,,D,]2 [D,F,C]2 | %50
 !arpeggio!!^![G,,D,B,] z z2 !^![G,,,G,,]2 !>![D,,D,]2 || !^![G,,,G,,]2 z2 z4 || %52
 !arpeggio!!>![G,,D,B,] z z2 z2 !arpeggio!!>![G,,!courtesy!_E,B,]2 | %53
 !arpeggio!!>![G,,D,B,] z z2 z2 ((!arpeggio!!>![G,,!courtesy!_E,B,]2 | %54
 .[G,,D,B,]2)) ((!arpeggio!!>![_E,,B,,=G,]2 .[G,,D,B,]2)) ((!arpeggio!!>![E,,B,,G,]2 | %55
 !arpeggio!.[G,,D,B,]2)) [D,G,B,]2 [D,,D,]2 [D,G,B,]2 | %56
 [A,,A,]2 [D,^F,C]2 z3/2 [D,,D,]<[=E,,=E,][^E,,^E,]/ | [^F,,^F,] z [D,^F,C]2 [D,,D,]2 [D,F,C]2 | %58
 [G,,G,]2 [G,B,D]2 [D,,D,]2 [G,B,D]2 | [A,,A,]2 [=E,G,A,^C]2 [D,,D,]2 [D,^F,C]2 | %60
 !arpeggio!!>![G,,D,B,] z z2 z2 !arpeggio!!>![G,,!courtesy!_E,B,]2 | %61
 !arpeggio!!>![G,,D,B,] z z2 z2 ((!arpeggio!!>![G,,!courtesy!_E,B,]2 | %62
 .[G,,D,B,]2)) ((!arpeggio!!>![_E,,B,,=G,]2 .[G,,D,B,]2)) ((!arpeggio!!>![E,,B,,G,]2 | %63
 !arpeggio!.[G,,D,B,]2)) [D,G,B,]2 [D,,D,]2 [D,G,B,]2 | %64
 [A,,A,]2 [D,^F,C]2 z3/2 [D,,D,]<[=E,,=E,][^E,,^E,]/ | [^F,,^F,] z [D,^F,C]2 [D,,D,]2 [D,F,C]2 | %66
 !arpeggio![G,,D,B,] z z2 z2 !>![D,D]2 | !^![G,,G,]2 z2 !^![G,,,G,,] z z2 || %68
[K:F][M:2/2] !>![G,B,D] !>![G,B,D]2 !>![G,B,D] !>![G,B,D]2 !>![G,B,D]2 | %69
 !>![G,B,_E] !>![G,B,E]2 !>![G,B,E] !>![G,B,E]2 !>![G,B,E]2 | %70
 !>![C,C] !>![C,C]2 !>![C,C] !>![D,D]2 !>![^D,^D]2 | !>![E,E]2 z2 !arpeggio!!^![C,,G,,E,]2 z2 || %72
"^R.H." F,,2 z x x4 |"^L.H." x"^R.H." (A,2 ^G, A,B, C2) |"_L.H." (D, A,2 D, G,4- | %75
"_L.H." G,) (D,2 E, F,E, D,2) |"_L.H." (E, C2 A, CA, G,^G, |"_L.H." A,CA,=G,-) G,4 | %78
"_L.H." F, x3 x4 |"_L.H." z .E,.F,!>!G,- G,.F, !>!E,2 |"^R.H." F,,2 z x x4 | %81
"^L.H." x"^R.H." (A,2 ^G, A,B, C2) |"_L.H." (D, A,2 D, G,4- |"_L.H." G,) (D,2 E, F,E, D,2) | %84
"_L.H." (E, C2 A, CA, G,^G, |"_L.H." A,CA,=G,-) G,4 |"^L.H." z .E,.F,!>!G,- G,.F, !>!E,2 | %87
 !>![F,,F,]2 C,,2[K:treble] !^![CE^G]4 || %88
[M:2/2][K:bass] !arpeggio![F,,C,A,]2 z[K:treble] .[A,CF] .[CFA]2[K:bass] !>![C,,C,]2 | %89
 !arpeggio!!>![D,,A,,^F,]2 z[K:treble] .[A,C^F] .[A,CF]2[K:bass] !>![D,,D,]2 | %90
 !arpeggio!.[G,,D,=B,]2 z .[D,G,B,] .[D,G,B,]2 !>![D,,D,]2 | %91
 [G,,,G,,]2 z .[D,=G,B,] .[D,G,B,]2 .[G,,,G,,]2 | .[C,,C,]2 z .[G,_B,CE] .[G,B,CE]2 .[G,B,CE]2 | %93
 .[C,,C,]2 .[G,B,CE]!>![G,B,CE]- [G,B,CE]2 !>![C,,C,]2 | %94
 !arpeggio!!>![F,,C,A,]2 z .[A,CF] .[A,CF]2 !>![_A,,_A,]2 | %95
 !>![G,,G,][K:treble] .[CE].[CF]!>![CG]- [CG].[CF] !>![CE]2 | %96
[K:bass] !arpeggio![F,,C,A,]2 z[K:treble] .[A,CF] .[CFA]2[K:bass] !>![C,,C,]2 | %97
 !arpeggio!!>![D,,A,,^F,]2 z[K:treble] .[A,C^F] .[A,CF]2[K:bass] !>![D,,D,]2 | %98
 !arpeggio!.[G,,D,=B,]2 z .[D,G,B,] .[D,G,B,]2 !>![D,,D,]2 | %99
 [G,,,G,,]2 z .[D,=G,B,] .[D,G,B,]2 .[G,,,G,,]2 | .[C,,C,]2 z .[G,_B,CE] .[G,B,CE]2 .[G,B,CE]2 | %101
 .[C,,C,]2 .[G,B,CE]!>![G,B,CE]- [G,B,CE]2 !>![G,,G,]2 | %102
 !>![C,,C,][K:treble] .[CE].[CF]!>![CG]- [CG].[CF] !>![CE]2 | %103
 !arpeggio![F,CA]2[K:bass] !>![C,,C,]2 !^![F,,,F,,] z"_D.S. al      Fine" !>![D,,D,]2 || %104
V:3
 x2 || x8 | z2 z [DGB]- [DGB]2 [^CGB]2 | z2 z [DGB]- [DGB]2 [^CGB]2 | x8 | x8 | x4 [DF]>D=E>^E | %7
 ^F x7 | x8 | x8 | x8 | z2 z [DGB]- [DGB]2 [^CGB]2 | z2 z [DGB]- [DGB]2 [^CGB]2 | x8 | x8 | %15
 x4 [DF]>D=E>^E | ^F x7 | x8 | x4!8va(! x!8va)! x3 || x4 .f._e !>!d2 | c8 | x8 | G8 | x8 | x8 | %25
 x8 | x!8va(! x2!8va)! x5 | x4 .f._e !>!d2 | c8 | x8 | G8 | x8 | x8 | x8 | x8 || %35
!8va(! x4 .f'._e' !>!d'2!8va)! | !tenuto!c'8 | x8 | !tenuto!g8 | x8 | x8 | x8 | %42
 x!8va(! x2!8va)! x5 |!8va(! x4 .f'._e' !>!d'2!8va)! | !tenuto!c'8 | x8 | !tenuto!g8 | x8 | x8 | %49
 x8 | x4!8va(! x2!8va)! x2 || x8 || x8 | x8 | x8 | x8 | x8 | x8 | x8 | x8 | x8 | x8 | x8 | x8 | %64
 x8 | x8 | x8 | x4!8va(! x!8va)! x3 ||[K:F][M:2/2] x8 | x8 | x8 | x8 || C F2 D E4- | E x7 | x8 | %75
 x8 | x8 | x8 | x F2 D F2 D2 | x8 | (C F2 D E4- | E) x7 | x8 | x8 | x8 | x8 | x8 | x8 || %88
[M:2/2] x8 | x8 | x8 | x8 | x8 | x8 | x8 | x8 | x8 | x8 | x8 | x8 | x8 | x8 | x8 | %103
 x4!8va(! x!8va)! x3 || %104
V:4
 x2 || x8 | x8 | x8 | x8 | x8 | x8 | x8 | x8 | x8 | x8 | x8 | x8 | x8 | x8 | x8 | x8 | x8 | x8 || %19
 x8 | z2 z !>![C,G,]- [C,G,]2 !>![C,G,]2 | D,3 D,- D,4 | z2 z !>![G,,D,]- [G,,D,]2 !>![G,,D,]2 | %23
 x8 | x8 | x8 | x8 | x8 | z2 z !>![C,G,]- [C,G,]2 !>![C,G,]2 | D,3 D,- D,4 | %30
 z2 z !>![G,,D,]- [G,,D,]2 !>![G,,D,]2 | x8 | x8 | x z z !>!D,- D,2 !>!D,2 | x8 ||[K:treble] x8 | %36
 z2 z !>![CG]- !>![CG]2 !>![CG]2 | !>!D3 !tenuto!D- D4 | z2 z [G,D]- [G,D]2 [G,D]2 |[K:bass] x8 | %40
 x8 | x8 | x8 |[K:treble] x8 | z2 z !>![CG]- !>![CG]2 !>![CG]2 | !>!D3 !tenuto!D- D4 | %46
 z2 z !>![G,D]- [G,D]2 !>![G,D]2 |[K:bass] x8 | x8 | x8 | x8 || x8 || x8 | x8 | x8 | x8 | x8 | x8 | %58
 x8 | x8 | x8 | x8 | x8 | x8 | x8 | x8 | x8 | x8 ||[K:F][M:2/2] x8 | x8 | x8 | x8 || x8 | %73
 D,,2 z x5 | G,,2 z x5 | G,,2 z x5 | C,,2 z x5 | C,,2 z x5 | F,,2 z x5 | G,,3 C,- C,4 | x8 | %81
 D,,2 z x5 | G,,2 z x5 | G,,2 z x5 | C,,2 z x5 | C,,2 z x5 | !>!C,6 C,2 | x4[K:treble] x4 || %88
[M:2/2][K:bass] x3[K:treble] x3[K:bass] x2 | x3[K:treble] x3[K:bass] x2 | x8 | x8 | x8 | x8 | x8 | %95
 x[K:treble] x7 |[K:bass] x3[K:treble] x3[K:bass] x2 | x3[K:treble] x3[K:bass] x2 | x8 | x8 | x8 | %101
 x8 | x[K:treble] x7 | x2[K:bass] x6 || %104

